X: 261
M: C
L: 1/8
K: A
dAFA dAFA | GEEd eBBe | dAFA dAFA | GFEA FDD :|
afdd' afdf | edef edBb | afad' afdf | edef d/d/d (df) |
afdd' afdf | edef edBe | defg abc'd' | edef d/d/dd2 :|


